X:1
T:The Cat bats at the Hanging Vine
C:Cari Fuchs <ffuchs@vms.cis.pitt.EDU> 
M:C|
L:1/8
K:D
F2AF BFAF|G2EG DGEG|F2AF BFAB|cdec dBAG|
F2AF BFAF|G2EG DGEG|F2AF BFAF|1 GFEC EDDE:|2 GABc defg||
|:fgaf bagf|egfe agfe|fgaf bagf|gefd cdeg|
 |fgaf bagf|egfe agfe|fedc dcBA|1 Bdce defg:|2 BGAF GEFG||"Last Time" Bdce d4||
